public/Group 9.svg

<svg width="186" height="222" viewBox="0 0 186 222" fill="none" xmlns="http://www.w3.org/2000/svg">
<path d="M85.909 0.33252L87.2877 0.50569C88.8148 5.37294 87.7967 92.5211 87.6553 103.698C70.7226 91.3075 74.3568 81.1326 74.4133 61.805L74.5767 21.6294C69.4762 23.5322 59.5791 28.6553 54.2347 31.2013L13.6935 50.4271C13.6574 71.8018 11.0895 119.671 17.5186 138.213C25.8778 162.317 52.1871 186.824 75.1197 197.925C76.0812 181.369 75.2611 152.893 75.1692 135.554C74.1595 134.959 73.152 134.354 72.1501 133.741C61.1091 126.974 57.2056 120.848 54.2502 108.511C41.0111 129.286 41.3752 146.106 56.1649 165.952C52.8673 164.262 50.3531 162.667 47.2294 160.684C46.475 160.054 45.7284 159.415 44.9888 158.768C24.4892 140.788 29.6865 118.349 42.8974 97.604C48.8563 88.2455 55.2104 81.9794 62.4928 73.795C61.4238 96.1776 67.4569 106.673 87.6766 116.245C88.7866 149.141 87.7897 187.966 87.7685 221.16C86.2059 220.163 84.4171 219.205 82.7273 218.276C47.631 198.962 7.62081 171.433 1.02562 128.698C-0.652874 117.824 0.213249 102.839 0.301628 91.7478L0.439504 40.6948C3.5165 39.1263 6.88762 37.6123 10.0473 36.1647C35.3803 24.5606 60.3519 11.3584 85.909 0.33252Z" fill="#F57824"/>
<path d="M98.5437 0L184.512 41.0019C184.9 61.0675 186.619 120.696 182.249 137.136C172.464 173.966 139.7 197.2 108.506 215.171C105.253 217.035 101.86 218.717 98.5224 220.424C98.48 215.295 98.4871 210.167 98.5295 205.038C129.109 187.37 165.344 163.661 170.661 125.337C171.926 116.238 171.283 104.393 171.248 94.9898L171.226 50.2119C164.191 47.5408 152.723 41.742 145.618 38.3789L98.4941 15.9108C98.2679 10.9686 98.4871 5.0178 98.5437 0Z" fill="#F57824"/>
<path d="M99.1305 44.1748L107.629 43.998L107.558 65.5048C111.185 62.4626 124.096 49.6414 124.35 62.0837C121.671 65.7176 111.638 72.7788 107.565 75.8331C107.7 84.5151 107.629 93.1999 107.374 101.879C114.36 96.9384 121.968 92.8175 129.42 88.6083C130.084 81.1124 130.798 73.6207 131.555 66.1339C133.839 65.9982 137.353 66.0625 139.728 66.0371C139.163 72.2699 138.618 77.7316 137.692 83.9411C142.231 80.8862 149.853 76.4459 154.887 74.529L158.882 80.9053C154.979 83.722 146.855 88.3454 142.5 90.9748L157.157 98.6192C156.358 100.604 154.717 103.615 153.713 105.611C146.848 102.267 140.202 98.8624 133.004 96.2944C126.924 99.3593 117.132 105.176 111.39 108.885C117.386 113.042 126.45 118.04 132.969 122.011C136.794 120.236 151.43 112.63 154.668 113.662C159.299 122.888 149.139 123.952 141.665 127.102C146.883 129.907 154.046 133.772 158.62 137.28L154.944 144.023C149.309 140.813 143.794 137.618 138.003 134.687C138.427 138.315 140.442 149.173 138.081 151.705C135.734 152.082 134.404 152.449 132.106 151.893C130.438 147.839 129.794 134.602 129.377 129.547C122.158 125.21 114.89 120.949 107.572 116.766C107.601 125.208 107.572 133.651 107.488 142.092C113.342 146.856 119.521 151.008 125.439 156.024L120.879 162.394L107.509 152.462C107.452 158.864 109.276 167.601 106.293 172.329C104.242 173.934 102.058 174.806 99.9436 173.005C97.7871 166.996 99.2931 59.2232 99.1305 44.1748Z" fill="#F57824"/>
</svg>

<svg xmlns="http://www.w3.org/2000/svg" width="186" height="222" fill="none" viewBox="0 0 186 222"><path fill="#f57824" d="m85.9.33 1.39.18c1.52 4.86.5 92.01.37 103.19-16.94-12.4-13.3-22.57-13.25-41.9l.17-40.17c-5.1 1.9-15 7.03-20.35 9.57L13.7 50.43c-.03 21.37-2.6 69.24 3.83 87.78 8.36 24.1 34.67 48.61 57.6 59.72.96-16.56.14-45.04.05-62.38l-3.02-1.8c-11.04-6.78-14.94-12.9-17.9-25.24-13.24 20.78-12.87 37.6 1.91 57.44-3.3-1.69-5.8-3.28-8.93-5.27L45 158.77c-20.5-17.98-15.3-40.42-2.1-61.17 5.97-9.35 12.32-15.62 19.6-23.8-1.07 22.38 4.97 32.87 25.19 42.45 1.1 32.9.11 71.72.09 104.91-1.56-1-3.35-1.95-5.04-2.88-35.1-19.32-75.1-46.85-81.7-89.58C-.65 117.82.2 102.84.3 91.75l.14-51.06c3.08-1.56 6.45-3.08 9.6-4.53C35.39 24.56 60.36 11.36 85.92.33M98.54 0l85.97 41c.39 20.07 2.1 79.7-2.26 96.14-9.79 36.83-42.55 60.06-73.74 78.03-3.26 1.87-6.65 3.55-9.99 5.25q-.05-7.68.01-15.38c30.58-17.67 66.81-41.38 72.13-79.7 1.27-9.1.62-20.95.59-30.35l-.02-44.78c-7.04-2.67-18.5-8.47-25.61-11.83L98.49 15.9c-.22-4.94 0-10.9.05-15.91"/><path fill="#f57824" d="m99.13 44.17 8.5-.17-.07 21.5c3.63-3.04 16.54-15.86 16.79-3.42-2.68 3.64-12.71 10.7-16.78 13.75q.2 13.03-.2 26.05c6.99-4.94 14.6-9.06 22.05-13.27q1-11.25 2.14-22.48c2.28-.13 5.8-.07 8.17-.1-.57 6.24-1.11 11.7-2.04 17.91 4.54-3.05 12.16-7.5 17.2-9.41l4 6.38c-3.91 2.81-12.03 7.44-16.39 10.06l14.66 7.65c-.8 1.98-2.44 5-3.45 7-6.86-3.35-13.5-6.76-20.7-9.33a287 287 0 0 0-21.62 12.6c6 4.15 15.06 9.15 21.58 13.12 3.82-1.77 18.46-9.38 21.7-8.35 4.63 9.23-5.53 10.3-13 13.44 5.21 2.8 12.38 6.67 16.95 10.18l-3.68 6.74c-5.63-3.2-11.15-6.4-16.94-9.33.43 3.63 2.44 14.48.08 17.02-2.35.37-3.68.74-5.97.18-1.67-4.05-2.32-17.29-2.73-22.34q-10.83-6.51-21.8-12.78.04 12.66-.1 25.32c5.86 4.77 12.04 8.92 17.96 13.93l-4.56 6.37-13.37-9.93c-.06 6.4 1.77 15.14-1.22 19.87-2.05 1.6-4.23 2.48-6.35.67-2.15-6-.65-113.78-.8-128.83"/></svg>
